Assets/Textures/Frame.cube
#Created by: Adobe Photoshop Export Color Lookup Plugin
TITLE "MyLut"
#LUT size
LUT_3D_SIZE 33
#data domain
DOMAIN_MIN 0.0 0.0 0.0
DOMAIN_MAX 1.0 1.0 1.0
#LUT data points
0.000000 0.000000 0.000000
0.000000 0.000000 0.000000
0.000000 0.000000 0.000000
0.001781 0.000000 0.000000
0.010062 0.000000 0.000000
0.018834 0.000000 0.000000
0.028373 0.000000 0.000000
0.039862 0.000000 0.000000
0.055418 0.000000 0.001695
0.075864 0.000000 0.009283
0.102989 0.000000 0.018677
0.137426 0.000000 0.030281
0.182701 0.000000 0.045310
0.242023 0.000000 0.064815
0.319253 0.000000 0.090050
0.420628 0.000000 0.123032
0.552724 0.000000 0.165877
0.724981 0.000000 0.221628
0.950188 0.000000 0.294402
1.000000 0.000000 0.389524
1.000000 0.000000 0.513639
1.000000 0.000000 0.675788
1.000000 0.000000 0.887603
1.000000 0.000000 1.000000
1.000000 0.000000 1.000000
1.000000 0.000000 1.000000
1.000000 0.000000 1.000000
1.000000 0.000000 1.000000
1.000000 0.000000 1.000000
1.000000 0.000000 1.000000
1.000000 0.000000 1.000000
1.000000 0.000000 1.000000
1.000000 0.000000 1.000000
0.000000 0.000000 0.000000
0.000000 0.000000 0.000000
0.000000 0.000000 0.000000
0.001628 0.000000 0.000000
0.009892 0.000000 0.000000
0.018682 0.000000 0.000000
0.028226 0.000000 0.000000
0.039720 0.000000 0.000000
0.055281 0.000000 0.000000
0.075731 0.000000 0.000000
0.102861 0.000000 0.009834
0.137301 0.000000 0.021968
0.182580 0.000000 0.037371
0.241905 0.000000 0.057180
0.319139 0.000000 0.082676
0.420516 0.000000 0.115893
0.552615 0.000000 0.158955
0.724875 0.000000 0.214908
0.950085 0.000000 0.287872
1.000000 0.000000 0.383176
1.000000 0.000000 0.507466
1.000000 0.000000 0.669783
1.000000 0.000000 0.881760
1.000000 0.000000 1.000000
1.000000 0.000000 1.000000
1.000000 0.000000 1.000000
1.000000 0.000000 1.000000
1.000000 0.000000 1.000000
1.000000 0.000000 1.000000
1.000000 0.000000 1.000000
1.000000 0.000000 1.000000
1.000000 0.000000 1.000000
1.000000 0.000000 1.000000
0.000000 0.000000 0.000000
0.000000 0.000000 0.000000
0.000000 0.000000 0.000000
0.001815 0.000000 0.000000
0.009997 0.000000 0.000000
0.018671 0.000000 0.000000
0.028104 0.000000 0.000000
0.039596 0.000000 0.000000
0.055164 0.000000 0.000000
0.075618 0.000000 0.000000
0.102751 0.000000 0.001448
0.137194 0.000000 0.014581
0.182476 0.000000 0.030430
0.241804 0.000000 0.050554
0.319040 0.000000 0.076303
0.420421 0.000000 0.109740
0.552522 0.000000 0.152997
0.724785 0.000000 0.209130
0.949997 0.000000 0.282264
1.000000 0.000000 0.377727
1.000000 0.000000 0.502169
1.000000 0.000000 0.664631
1.000000 0.000000 0.876749
1.000000 0.000000 1.000000
1.000000 0.000000 1.000000
1.000000 0.000000 1.000000
1.000000 0.000000 1.000000
1.000000 0.000000 1.000000
1.000000 0.000000 1.000000
1.000000 0.000000 1.000000
1.000000 0.000000 1.000000
1.000000 0.000000 1.000000
1.000000 0.000000 1.000000
0.000000 0.002560 0.000000
0.000000 0.002577 0.000000
0.000000 0.002523 0.000000
0.001971 0.002477 0.000000
0.010176 0.002002 0.000000
0.018843 0.000000 0.000000
0.028269 0.000000 0.000000
0.039626 0.000000 0.000000
0.055006 0.000000 0.000000
0.075485 0.000000 0.000000
0.102622 0.000000 0.000000
0.137069 0.000000 0.005401
0.182355 0.000000 0.022122
0.241686 0.000000 0.042711
0.318926 0.000000 0.068800
0.420309 0.000000 0.102516
0.552414 0.000000 0.146018
0.724679 0.000000 0.202370
0.949894 0.000000 0.275706
1.000000 0.000000 0.371360
1.000000 0.000000 0.495981
1.000000 0.000000 0.658616
1.000000 0.000000 0.870899
1.000000 0.000000 1.000000
1.000000 0.000000 1.000000
1.000000 0.000000 1.000000
1.000000 0.000000 1.000000
1.000000 0.000000 1.000000
1.000000 0.000000 1.000000
1.000000 0.000000 1.000000
1.000000 0.000000 1.000000
1.000000 0.000000 1.000000
1.000000 0.000000 1.000000
0.000000 0.010572 0.000000
0.000000 0.010598 0.000000
0.000000 0.010561 0.000000
0.001608 0.010507 0.000000
0.010270 0.010479 0.000000
0.018980 0.010003 0.000000
0.028410 0.004967 0.000000
0.039763 0.000000 0.000000
0.055138 0.000000 0.000000
0.075351 0.000000 0.000000
0.102512 0.000000 0.000000
0.136962 0.000000 0.000000
0.182251 0.000000 0.014742
0.241585 0.000000 0.035872
0.318827 0.000000 0.062303
0.420214 0.000000 0.096284
0.552321 0.000000 0.140008
0.724588 0.000000 0.196557
0.949806 0.000000 0.270073
1.000000 0.000000 0.365894
1.000000 0.000000 0.490671
1.000000 0.000000 0.653456
1.000000 0.000000 0.865880
1.000000 0.000000 1.000000
1.000000 0.000000 1.000000
1.000000 0.000000 1.000000
1.000000 0.000000 1.000000
1.000000 0.000000 1.000000
1.000000 0.000000 1.000000
1.000000 0.000000 1.000000
1.000000 0.000000 1.000000
1.000000 0.000000 1.000000
1.000000 0.000000 1.000000
0.000000 0.019144 0.000000
0.000000 0.019166 0.000000
0.000000 0.019156 0.000000
0.000000 0.019104 0.000000
0.009915 0.019063 0.000000
0.019083 0.019032 0.000000
0.028556 0.018520 0.000000
0.039922 0.013266 0.000000
0.055293 0.002656 0.000000
0.075501 0.000000 0.000000
0.102317 0.000000 0.000000
0.136838 0.000000 0.000000
0.182129 0.000000 0.005579
0.241467 0.000000 0.027722
0.318713 0.000000 0.054635
0.420102 0.000000 0.088962
0.552212 0.000000 0.132965
0.724483 0.000000 0.189754
0.949703 0.000000 0.263485
1.000000 0.000000 0.359505
1.000000 0.000000 0.484470
1.000000 0.000000 0.647431
1.000000 0.000000 0.860023
1.000000 0.000000 1.000000
1.000000 0.000000 1.000000
1.000000 0.000000 1.000000
1.000000 0.000000 1.000000
1.000000 0.000000 1.000000
1.000000 0.000000 1.000000
1.000000 0.000000 1.000000
1.000000 0.000000 1.000000
1.000000 0.000000 1.000000
1.000000 0.000000 1.000000
0.000000 0.028482 0.000000
0.000000 0.028503 0.000000
0.000000 0.028519 0.000000
0.000000 0.028469 0.000000
0.005221 0.028426 0.000000
0.018702 0.028382 0.000000
0.028669 0.028348 0.000000
0.040082 0.027734 0.000000
0.055469 0.020372 0.000000
0.075672 0.006770 0.000000
0.102482 0.000000 0.000000
0.136636 0.000000 0.000000
0.181991 0.000000 0.000000
0.241332 0.000000 0.018092
0.318582 0.000000 0.045737
0.419975 0.000000 0.080519
0.552088 0.000000 0.124868
0.724362 0.000000 0.181949
0.949585 0.000000 0.255937
1.000000 0.000000 0.352191
1.000000 0.000000 0.477373
1.000000 0.000000 0.640538
1.000000 0.000000 0.853324
1.000000 0.000000 1.000000
1.000000 0.000000 1.000000
1.000000 0.000000 1.000000
1.000000 0.000000 1.000000
1.000000 0.000000 1.000000
1.000000 0.000000 1.000000
1.000000 0.000000 1.000000
1.000000 0.000000 1.000000
1.000000 0.000000 1.000000
1.000000 0.000000 1.000000
0.000000 0.039740 0.000000
0.000000 0.039761 0.000000
0.000000 0.039780 0.000000
0.000000 0.039758 0.000000
0.000000 0.039717 0.000000
0.013861 0.039668 0.000000
0.028211 0.039621 0.000000
0.040219 0.039580 0.000000
0.055673 0.038747 0.000000
0.075885 0.027929 0.000000
0.102690 0.009944 0.000000
0.136727 0.000000 0.000000
0.181777 0.000000 0.000000
0.241164 0.000000 0.005153
0.318418 0.000000 0.034359
0.419815 0.000000 0.069837
0.551933 0.000000 0.114673
0.724211 0.000000 0.172145
0.949438 0.000000 0.246470
1.000000 0.000000 0.343027
1.000000 0.000000 0.468486
1.000000 0.000000 0.631911
1.000000 0.000000 0.844943
1.000000 0.000000 1.000000
1.000000 0.000000 1.000000
1.000000 0.000000 1.000000
1.000000 0.000000 1.000000
1.000000 0.000000 1.000000
1.000000 0.000000 1.000000
1.000000 0.000000 1.000000
1.000000 0.000000 1.000000
1.000000 0.000000 1.000000
1.000000 0.000000 1.000000
0.000000 0.054993 0.001409
0.000000 0.055013 0.000000
0.000000 0.055031 0.000000
0.000000 0.055051 0.000000
0.000000 0.055011 0.000000
0.003485 0.054965 0.000000
0.021368 0.054911 0.000000
0.039599 0.054851 0.000000
0.055858 0.054795 0.000000
0.076171 0.053701 0.000000
0.102980 0.038579 0.000000
0.137009 0.015913 0.000000
0.181760 0.000000 0.000000
0.240906 0.000000 0.000000
0.318188 0.000000 0.017706
0.419592 0.000000 0.054595
0.551716 0.000000 0.100244
0.724000 0.000000 0.158323
0.949233 0.000000 0.233154
1.000000 0.000000 0.330155
1.000000 0.000000 0.456017
1.000000 0.000000 0.619813
1.000000 0.000000 0.833194
1.000000 0.000000 1.000000
1.000000 0.000000 1.000000
1.000000 0.000000 1.000000
1.000000 0.000000 1.000000
1.000000 0.000000 1.000000
1.000000 0.000000 1.000000
1.000000 0.000000 1.000000
1.000000 0.000000 1.000000
1.000000 0.000000 1.000000
1.000000 0.000000 1.000000
0.000000 0.075047 0.008974
0.000000 0.075066 0.000000
0.000000 0.075083 0.000000
0.000000 0.075103 0.000000
0.000000 0.075119 0.000000
0.000000 0.075074 0.000000
0.008052 0.075022 0.000000
0.029415 0.074957 0.000000
0.055044 0.074872 0.000000
0.076415 0.074798 0.000000
0.103365 0.073348 0.000000
0.137392 0.053348 0.000000
0.182132 0.023740 0.000000
0.240767 0.000000 0.000000
0.317874 0.000000 0.000000
0.419289 0.000000 0.033159
0.551421 0.000000 0.080315
0.723713 0.000000 0.139368
0.948954 0.000000 0.214960
1.000000 0.000000 0.312605
1.000000 0.000000 0.439039
1.000000 0.000000 0.603357
1.000000 0.000000 0.817225
1.000000 0.000000 1.000000
1.000000 0.000000 1.000000
1.000000 0.000000 1.000000
1.000000 0.000000 1.000000
1.000000 0.000000 1.000000
1.000000 0.000000 1.000000
1.000000 0.000000 1.000000
1.000000 0.000000 1.000000
1.000000 0.000000 1.000000
1.000000 0.000000 1.000000
0.000000 0.101660 0.018299
0.000000 0.101679 0.009431
0.000000 0.101695 0.000951
0.000000 0.101714 0.000000
0.000000 0.101730 0.000000
0.000000 0.101758 0.000000
0.000000 0.101708 0.000000
0.011810 0.101645 0.000000
0.040695 0.101557 0.000000
0.075335 0.101442 0.000000
0.103689 0.101344 0.000000
0.137904 0.099504 0.000000
0.182642 0.073282 0.000000
0.241263 0.034722 0.000000
0.317600 0.000000 0.000000
0.418875 0.000000 0.000014
0.551018 0.000000 0.052172
0.723321 0.000000 0.112995
0.948572 0.000000 0.189806
1.000000 0.000000 0.288428
1.000000 0.000000 0.415698
1.000000 0.000000 0.580765
1.000000 0.000000 0.795320
1.000000 0.000000 1.000000
1.000000 0.000000 1.000000
1.000000 0.000000 1.000000
1.000000 0.000000 1.000000
1.000000 0.000000 1.000000
1.000000 0.000000 1.000000
1.000000 0.000000 1.000000
1.000000 0.000000 1.000000
1.000000 0.000000 1.000000
1.000000 0.000000 1.000000
0.000000 0.135452 0.029810
0.000000 0.135470 0.021481
0.000000 0.135486 0.014074
0.000000 0.135504 0.004839
0.000000 0.135520 0.000000
0.000000 0.135539 0.000000
0.000000 0.135570 0.000000
0.000000 0.135529 0.000000
0.018524 0.135444 0.000000
0.056338 0.135327 0.000000
0.102320 0.135175 0.000000
0.138317 0.135050 0.000000
0.183301 0.132632 0.000000
0.241910 0.097477 0.000000
0.318229 0.047370 0.000000
0.418431 0.000000 0.000000
0.550490 0.000000 0.012399
0.722807 0.000000 0.077512
0.948072 0.000000 0.156393
1.000000 0.000000 0.256499
1.000000 0.000000 0.384976
1.000000 0.000000 0.551089
1.000000 0.000000 0.766584
1.000000 0.000000 1.000000
1.000000 0.000000 1.000000
1.000000 0.000000 1.000000
1.000000 0.000000 1.000000
1.000000 0.000000 1.000000
1.000000 0.000000 1.000000
1.000000 0.000000 1.000000
1.000000 0.000000 1.000000
1.000000 0.000000 1.000000
1.000000 0.000000 1.000000
0.000000 0.179885 0.044713
0.000000 0.179903 0.036763
0.000000 0.179918 0.029809
0.000000 0.179936 0.021480
0.000000 0.179951 0.014073
0.000000 0.179969 0.004838
0.000000 0.179990 0.000000
0.000000 0.180023 0.000000
0.000000 0.179998 0.000000
0.027342 0.179885 0.000000
0.077350 0.179730 0.000000
0.136517 0.179534 0.000000
0.183843 0.179369 0.000000
0.242786 0.176201 0.000000
0.319081 0.129775 0.000000
0.419260 0.064089 0.000000
0.549828 0.000000 0.000000
0.722113 0.000000 0.026326
0.947396 0.000000 0.109971
1.000000 0.000000 0.212646
1.000000 0.000000 0.343011
1.000000 0.000000 0.510679
1.000000 0.000000 0.727532
1.000000 0.000000 1.000000
1.000000 0.000000 1.000000
1.000000 0.000000 1.000000
1.000000 0.000000 1.000000
1.000000 0.000000 1.000000
1.000000 0.000000 1.000000
1.000000 0.000000 1.000000
1.000000 0.000000 1.000000
1.000000 0.000000 1.000000
1.000000 0.000000 1.000000
0.000000 0.238108 0.064051
0.000000 0.238125 0.056407
0.000000 0.238140 0.049771
0.000000 0.238158 0.041914
0.000000 0.238173 0.035061
0.000000 0.238190 0.026889
0.000000 0.238210 0.017223
0.000000 0.238235 0.004160
0.000000 0.238275 0.000000
0.000000 0.238267 0.000000
0.039623 0.238116 0.000000
0.102983 0.237920 0.000000
0.181486 0.237659 0.000000
0.243496 0.237444 0.000000
0.320229 0.232945 0.000000
0.420377 0.172064 0.000000
0.550916 0.086633 0.000000
0.721180 0.000000 0.000000
0.946485 0.000000 0.043698
1.000000 0.000000 0.152014
1.000000 0.000000 0.285610
1.000000 0.000000 0.455698
1.000000 0.000000 0.674562
1.000000 0.000000 0.957581
1.000000 0.000000 1.000000
1.000000 0.000000 1.000000
1.000000 0.000000 1.000000
1.000000 0.000000 1.000000
1.000000 0.000000 1.000000
1.000000 0.000000 1.000000
1.000000 0.000000 1.000000
1.000000 0.000000 1.000000
1.000000 0.000000 1.000000
0.000000 0.313914 0.089068
0.000000 0.313931 0.081686
0.000000 0.313945 0.075305
0.000000 0.313962 0.067791
0.000000 0.313977 0.061283
0.000000 0.313994 0.053602
0.000000 0.314013 0.044685
0.000000 0.314037 0.033276
0.000000 0.314071 0.016547
0.000000 0.314120 0.000000
0.000000 0.314128 0.000000
0.053866 0.313937 0.000000
0.137129 0.313679 0.000000
0.240427 0.313334 0.000000
0.321158 0.313054 0.000000
0.421872 0.306354 0.000000
0.552371 0.227055 0.000000
0.722597 0.115716 0.000000
0.945198 0.000000 0.000000
1.000000 0.000000 0.066406
1.000000 0.000000 0.206846
1.000000 0.000000 0.381020
1.000000 0.000000 0.602984
1.000000 0.000000 0.888593
1.000000 0.000000 1.000000
1.000000 0.000000 1.000000
1.000000 0.000000 1.000000
1.000000 0.000000 1.000000
1.000000 0.000000 1.000000
1.000000 0.000000 1.000000
1.000000 0.000000 1.000000
1.000000 0.000000 1.000000
1.000000 0.000000 1.000000
0.000000 0.413423 0.121761
0.000000 0.413439 0.114615
0.000000 0.413453 0.108454
0.000000 0.413470 0.101222
0.000000 0.413484 0.094982
0.000000 0.413501 0.087649
0.000000 0.413519 0.079193
0.000000 0.413543 0.068492
0.000000 0.413576 0.053216
0.000000 0.413621 0.031708
0.000000 0.413682 0.000000
0.000000 0.413716 0.000000
0.072861 0.413465 0.000000
0.181864 0.413126 0.000000
0.317130 0.412675 0.000000
0.423100 0.412307 0.000000
0.554333 0.403341 0.000000
0.724508 0.299945 0.000000
0.947059 0.154540 0.000000
1.000000 0.000000 0.000000
1.000000 0.000000 0.095036
1.000000 0.000000 0.277787
1.000000 0.000000 0.505004
1.000000 0.000000 0.794631
1.000000 0.000000 1.000000
1.000000 0.000000 1.000000
1.000000 0.000000 1.000000
1.000000 0.000000 1.000000
1.000000 0.000000 1.000000
1.000000 0.000000 1.000000
1.000000 0.000000 1.000000
1.000000 0.000000 1.000000
1.000000 0.000000 1.000000
0.000000 0.543092 0.164231
0.000000 0.543108 0.157301
0.000000 0.543122 0.151337
0.000000 0.543138 0.144350
0.000000 0.543152 0.138333
0.000000 0.543168 0.131281
0.000000 0.543186 0.123174
0.000000 0.543209 0.112964
0.000000 0.543242 0.098512
0.000000 0.543285 0.078543
0.000000 0.543345 0.050321
0.000000 0.543423 0.010246
0.000000 0.543486 0.000000
0.098157 0.543156 0.000000
0.240037 0.542714 0.000000
0.417853 0.542122 0.000000
0.555937 0.541643 0.000000
0.727066 0.529678 0.000000
0.949550 0.394484 0.000000
1.000000 0.204299 0.000000
1.000000 0.000000 0.000000
1.000000 0.000000 0.132598
1.000000 0.000000 0.370627
1.000000 0.000000 0.666996
1.000000 0.000000 1.000000
1.000000 0.000000 1.000000
1.000000 0.000000 1.000000
1.000000 0.000000 1.000000
1.000000 0.000000 1.000000
1.000000 0.000000 1.000000
1.000000 0.000000 1.000000
1.000000 0.000000 1.000000
1.000000 0.000000 1.000000
0.000000 0.712189 0.219490
0.000000 0.712205 0.212763
0.000000 0.712218 0.206979
0.000000 0.712234 0.200212
0.000000 0.712247 0.194393
0.000000 0.712263 0.187582
0.000000 0.712281 0.179767
0.000000 0.712303 0.169951
0.000000 0.712335 0.156111
0.000000 0.712377 0.137128
0.000000 0.712435 0.110707
0.000000 0.712511 0.075134
0.000000 0.712614 0.023668
0.000000 0.712712 0.000000
0.130932 0.712282 0.000000
0.317088 0.711702 0.000000
0.549095 0.710928 0.000000
0.729161 0.710304 0.000000
0.952887 0.694133 0.000000
1.000000 0.517147 0.000000
1.000000 0.268840 0.000000
1.000000 0.000000 0.000000
1.000000 0.000000 0.181795
1.000000 0.000000 0.491908
1.000000 0.000000 0.879212
1.000000 0.000000 1.000000
1.000000 0.000000 1.000000
1.000000 0.000000 1.000000
1.000000 0.000000 1.000000
1.000000 0.000000 1.000000
1.000000 0.000000 1.000000
1.000000 0.000000 1.000000
1.000000 0.000000 1.000000
0.000000 0.933269 0.291620
0.000000 0.933284 0.285085
0.000000 0.933297 0.279470
0.000000 0.933313 0.272906
0.000000 0.933326 0.267267
0.000000 0.933341 0.260672
0.000000 0.933358 0.253116
0.000000 0.933380 0.243638
0.000000 0.933410 0.230307
0.000000 0.933452 0.212089
0.000000 0.933508 0.186899
0.000000 0.933582 0.153428
0.000000 0.933683 0.106898
0.000000 0.933817 0.040321
0.000000 0.933962 0.000000
0.174593 0.933397 0.000000
0.417055 0.932641 0.000000
0.720216 0.931630 0.000000
0.955632 0.930813 0.000000
1.000000 0.909015 0.000000
1.000000 0.677824 0.000000
1.000000 0.353291 0.000000
1.000000 0.000000 0.000000
1.000000 0.000000 0.245496
1.000000 0.000000 0.650460
1.000000 0.000000 1.000000
1.000000 0.000000 1.000000
1.000000 0.000000 1.000000
1.000000 0.000000 1.000000
1.000000 0.000000 1.000000
1.000000 0.000000 1.000000
1.000000 0.000000 1.000000
1.000000 0.000000 1.000000
0.000000 1.000000 0.385900
0.000000 1.000000 0.379546
0.000000 1.000000 0.374092
0.000000 1.000000 0.367718
0.000000 1.000000 0.362247
0.000000 1.000000 0.355852
0.000000 1.000000 0.348530
0.000000 1.000000 0.339356
0.000000 1.000000 0.326470
0.000000 1.000000 0.308900
0.000000 1.000000 0.284693
0.000000 1.000000 0.252719
0.000000 1.000000 0.208794
0.000000 1.000000 0.148029
0.000000 1.000000 0.062069
0.000000 1.000000 0.000000
0.230747 1.000000 0.000000
0.546809 1.000000 0.000000
0.943927 1.000000 0.000000
1.000000 1.000000 0.000000
1.000000 1.000000 0.000000
1.000000 0.888442 0.000000
1.000000 0.464423 0.000000
1.000000 0.000000 0.000000
1.000000 0.000000 0.328445
1.000000 0.000000 0.857242
1.000000 0.000000 1.000000
1.000000 0.000000 1.000000
1.000000 0.000000 1.000000
1.000000 0.000000 1.000000
1.000000 0.000000 1.000000
1.000000 0.000000 1.000000
1.000000 0.000000 1.000000
0.000000 1.000000 0.508914
0.000000 1.000000 0.502736
0.000000 1.000000 0.497433
0.000000 1.000000 0.491240
0.000000 1.000000 0.485926
0.000000 1.000000 0.479717
0.000000 1.000000 0.472613
0.000000 1.000000 0.463718
0.000000 1.000000 0.451235
0.000000 1.000000 0.434239
0.000000 1.000000 0.410872
0.000000 1.000000 0.380111
0.000000 1.000000 0.338090
0.000000 1.000000 0.280597
0.000000 1.000000 0.201667
0.000000 1.000000 0.089428
0.000000 1.000000 0.000000
0.303696 1.000000 0.000000
0.716749 1.000000 0.000000
1.000000 1.000000 0.000000
1.000000 1.000000 0.000000
1.000000 1.000000 0.000000
1.000000 1.000000 0.000000
1.000000 0.609471 0.000000
1.000000 0.000000 0.000000
1.000000 0.000000 0.437152
1.000000 0.000000 1.000000
1.000000 0.000000 1.000000
1.000000 0.000000 1.000000
1.000000 0.000000 1.000000
1.000000 0.000000 1.000000
1.000000 0.000000 1.000000
1.000000 0.000000 1.000000
0.000000 1.000000 0.669623
0.000000 1.000000 0.663613
0.000000 1.000000 0.658457
0.000000 1.000000 0.652435
0.000000 1.000000 0.647270
0.000000 1.000000 0.641240
0.000000 1.000000 0.634339
0.000000 1.000000 0.625704
0.000000 1.000000 0.613595
0.000000 1.000000 0.597122
0.000000 1.000000 0.574506
0.000000 1.000000 0.544796
0.000000 1.000000 0.504338
0.000000 1.000000 0.449284
0.000000 1.000000 0.374490
0.000000 1.000000 0.271044
0.000000 1.000000 0.125327
0.000000 1.000000 0.000000
0.399129 1.000000 0.000000
0.939479 1.000000 0.000000
1.000000 1.000000 0.000000
1.000000 1.000000 0.000000
1.000000 1.000000 0.000000
1.000000 1.000000 0.000000
1.000000 0.798540 0.000000
1.000000 0.000000 0.000000
1.000000 0.000000 0.578801
1.000000 0.000000 1.000000
1.000000 0.000000 1.000000
1.000000 0.000000 1.000000
1.000000 0.000000 1.000000
1.000000 0.000000 1.000000
1.000000 0.000000 1.000000
0.000000 1.000000 0.879556
0.000000 1.000000 0.873708
0.000000 1.000000 0.868693
0.000000 1.000000 0.862836
0.000000 1.000000 0.857815
0.000000 1.000000 0.851951
0.000000 1.000000 0.845246
0.000000 1.000000 0.836857
0.000000 1.000000 0.825097
0.000000 1.000000 0.809111
0.000000 1.000000 0.787184
0.000000 1.000000 0.758418
0.000000 1.000000 0.719323
0.000000 1.000000 0.666289
0.000000 1.000000 0.594617
0.000000 1.000000 0.496488
0.000000 1.000000 0.361839
0.000000 1.000000 0.172345
0.000000 1.000000 0.000000
0.524580 1.000000 0.000000
1.000000 1.000000 0.000000
1.000000 1.000000 0.000000
1.000000 1.000000 0.000000
1.000000 1.000000 0.000000
1.000000 1.000000 0.000000
1.000000 1.000000 0.000000
1.000000 0.000000 0.000000
1.000000 0.000000 0.763850
1.000000 0.000000 1.000000
1.000000 0.000000 1.000000
1.000000 0.000000 1.000000
1.000000 0.000000 1.000000
1.000000 0.000000 1.000000
0.000000 1.000000 1.000000
0.000000 1.000000 1.000000
0.000000 1.000000 1.000000
0.000000 1.000000 1.000000
0.000000 1.000000 1.000000
0.000000 1.000000 1.000000
0.000000 1.000000 1.000000
0.000000 1.000000 1.000000
0.000000 1.000000 1.000000
0.000000 1.000000 1.000000
0.000000 1.000000 1.000000
0.000000 1.000000 1.000000
0.000000 1.000000 0.998132
0.000000 1.000000 0.946867
0.000000 1.000000 0.877797
0.000000 1.000000 0.783715
0.000000 1.000000 0.655885
0.000000 1.000000 0.480449
0.000000 1.000000 0.233196
0.000000 1.000000 0.000000
0.688325 1.000000 0.000000
1.000000 1.000000 0.000000
1.000000 1.000000 0.000000
1.000000 1.000000 0.000000
1.000000 1.000000 0.000000
1.000000 1.000000 0.000000
1.000000 1.000000 0.000000
1.000000 0.000000 0.000000
1.000000 0.000000 1.000000
1.000000 0.000000 1.000000
1.000000 0.000000 1.000000
1.000000 0.000000 1.000000
1.000000 0.000000 1.000000
0.000000 1.000000 1.000000
0.000000 1.000000 1.000000
0.000000 1.000000 1.000000
0.000000 1.000000 1.000000
0.000000 1.000000 1.000000
0.000000 1.000000 1.000000
0.000000 1.000000 1.000000
0.000000 1.000000 1.000000
0.000000 1.000000 1.000000
0.000000 1.000000 1.000000
0.000000 1.000000 1.000000
0.000000 1.000000 1.000000
0.000000 1.000000 1.000000
0.000000 1.000000 1.000000
0.000000 1.000000 1.000000
0.000000 1.000000 1.000000
0.000000 1.000000 1.000000
0.000000 1.000000 0.864709
0.000000 1.000000 0.635506
0.000000 1.000000 0.312413
0.000000 1.000000 0.000000
0.901871 1.000000 0.000000
1.000000 1.000000 0.000000
1.000000 1.000000 0.000000
1.000000 1.000000 0.000000
1.000000 1.000000 0.000000
1.000000 1.000000 0.000000
1.000000 1.000000 0.000000
1.000000 0.000000 0.000000
1.000000 0.000000 1.000000
1.000000 0.000000 1.000000
1.000000 0.000000 1.000000
1.000000 0.000000 1.000000
0.000000 1.000000 1.000000
0.000000 1.000000 1.000000
0.000000 1.000000 1.000000
0.000000 1.000000 1.000000
0.000000 1.000000 1.000000
0.000000 1.000000 1.000000
0.000000 1.000000 1.000000
0.000000 1.000000 1.000000
0.000000 1.000000 1.000000
0.000000 1.000000 1.000000
0.000000 1.000000 1.000000
0.000000 1.000000 1.000000
0.000000 1.000000 1.000000
0.000000 1.000000 1.000000
0.000000 1.000000 1.000000
0.000000 1.000000 1.000000
0.000000 1.000000 1.000000
0.000000 1.000000 1.000000
0.000000 1.000000 1.000000
0.000000 1.000000 0.837719
0.000000 1.000000 0.416239
0.000000 1.000000 0.000000
1.000000 1.000000 0.000000
1.000000 1.000000 0.000000
1.000000 1.000000 0.000000
1.000000 1.000000 0.000000
1.000000 1.000000 0.000000
1.000000 1.000000 0.000000
1.000000 1.000000 0.000000
1.000000 0.000000 0.000000
1.000000 0.000000 1.000000
1.000000 0.000000 1.000000
1.000000 0.000000 1.000000
0.000000 1.000000 1.000000
0.000000 1.000000 1.000000
0.000000 1.000000 1.000000
0.000000 1.000000 1.000000
0.000000 1.000000 1.000000
0.000000 1.000000 1.000000
0.000000 1.000000 1.000000
0.000000 1.000000 1.000000
0.000000 1.000000 1.000000
0.000000 1.000000 1.000000
0.000000 1.000000 1.000000
0.000000 1.000000 1.000000
0.000000 1.000000 1.000000
0.000000 1.000000 1.000000
0.000000 1.000000 1.000000
0.000000 1.000000 1.000000
0.000000 1.000000 1.000000
0.000000 1.000000 1.000000
0.000000 1.000000 1.000000
0.000000 1.000000 1.000000
0.000000 1.000000 1.000000
0.000000 1.000000 0.551505
0.000000 1.000000 0.000000
1.000000 1.000000 0.000000
