Assets/Textures/Frame.cube
#Created by: Adobe Photoshop Export Color Lookup Plugin
TITLE "MyLut"
#LUT size
LUT_3D_SIZE 5
#data domain
DOMAIN_MIN 0.0 0.0 0.0
DOMAIN_MAX 1.0 1.0 1.0
#LUT data points
0.000000 0.000000 0.000000
0.055418 0.000000 0.001695
0.552724 0.000000 0.165877
1.000000 0.000000 1.000000
1.000000 0.000000 1.000000
0.000000 0.054993 0.001409
0.055858 0.054795 0.000000
0.551716 0.000000 0.100244
1.000000 0.000000 1.000000
1.000000 0.000000 1.000000
0.000000 0.543092 0.164231
0.000000 0.543242 0.098512
0.555937 0.541643 0.000000
1.000000 0.000000 1.000000
1.000000 0.000000 1.000000
0.000000 1.000000 1.000000
0.000000 1.000000 1.000000
0.000000 1.000000 1.000000
1.000000 1.000000 0.000000
1.000000 0.000000 1.000000
0.000000 1.000000 1.000000
0.000000 1.000000 1.000000
0.000000 1.000000 1.000000
0.000000 1.000000 1.000000
1.000000 1.000000 0.000000
0.000000 0.001587 0.053795
0.056263 0.000000 0.053846
0.553732 0.000000 0.228938
1.000000 0.000000 1.000000
1.000000 0.000000 1.000000
0.000000 0.054868 0.053645
0.053476 0.051119 0.050197
0.551183 0.018466 0.204964
1.000000 0.000000 1.000000
1.000000 0.000000 1.000000
0.000000 0.542943 0.227343
0.033658 0.540021 0.203527
0.554047 0.538729 0.018773
1.000000 0.000000 1.000000
1.000000 0.000000 1.000000
0.000000 1.000000 1.000000
0.000000 1.000000 1.000000
0.000000 1.000000 1.000000
1.000000 1.000000 0.000000
1.000000 0.000000 1.000000
0.000000 1.000000 1.000000
0.000000 1.000000 1.000000
0.000000 1.000000 1.000000
0.000000 1.000000 1.000000
1.000000 1.000000 0.000000
0.000000 0.168117 0.531788
0.000000 0.101051 0.531966
0.558893 0.000000 0.532162
1.000000 0.000000 1.000000
1.000000 0.000000 1.000000
0.000000 0.232532 0.531610
0.035976 0.208025 0.528936
0.556683 0.017319 0.529269
1.000000 0.000000 1.000000
1.000000 0.000000 1.000000
0.000000 0.542178 0.530697
0.040863 0.539206 0.527963
0.538557 0.514819 0.505533
1.000000 0.243888 1.000000
1.000000 0.000000 1.000000
0.000000 1.000000 1.000000
0.000000 1.000000 1.000000
0.373242 1.000000 1.000000
1.000000 1.000000 0.244711
1.000000 0.000000 1.000000
0.000000 1.000000 1.000000
0.000000 1.000000 1.000000
0.000000 1.000000 1.000000
0.000000 1.000000 1.000000
1.000000 1.000000 0.000000
0.000000 1.000000 1.000000
0.000000 1.000000 1.000000
0.000000 1.000000 1.000000
1.000000 0.000000 1.000000
1.000000 0.000000 1.000000
0.000000 1.000000 1.000000
0.000000 1.000000 1.000000
0.000000 1.000000 1.000000
1.000000 0.000000 1.000000
1.000000 0.000000 1.000000
0.000000 1.000000 1.000000
0.000000 1.000000 1.000000
0.392488 1.000000 1.000000
1.000000 0.234553 1.000000
1.000000 0.000000 1.000000
0.000000 1.000000 1.000000
0.000000 1.000000 1.000000
0.433154 1.000000 1.000000
1.000000 1.000000 1.000000
1.000000 1.000000 1.000000
0.000000 1.000000 1.000000
0.000000 1.000000 1.000000
0.000000 1.000000 1.000000
1.000000 1.000000 1.000000
1.000000 1.000000 1.000000
0.000000 1.000000 1.000000
0.000000 1.000000 1.000000
0.000000 1.000000 1.000000
0.000000 1.000000 1.000000
1.000000 0.000000 1.000000
0.000000 1.000000 1.000000
0.000000 1.000000 1.000000
0.000000 1.000000 1.000000
0.000000 1.000000 1.000000
1.000000 0.000000 1.000000
0.000000 1.000000 1.000000
0.000000 1.000000 1.000000
0.000000 1.000000 1.000000
0.000000 1.000000 1.000000
1.000000 0.000000 1.000000
0.000000 1.000000 1.000000
0.000000 1.000000 1.000000
0.000000 1.000000 1.000000
1.000000 1.000000 1.000000
1.000000 1.000000 1.000000
0.000000 1.000000 1.000000
0.000000 1.000000 1.000000
0.000000 1.000000 1.000000
1.000000 1.000000 1.000000
1.000000 1.000000 1.000000
